X:1
T:Isaiah (Barnby), 888.86.86
T:Isaiah (Barnby), 888.86.86
T:Joseph Barnby, 1874
T:Public Domain Courtesy of the Cyber Hymnal™
C:Joseph Barnby, 1874
Z:Public Domain
Z:Courtesy of the Cyber Hymnal™
%%score ( 1 2 ) ( 3 4 )
L:1/8
Q:1/4=108
M:4/4
K:F
V:1 treble 
V:2 treble 
V:3 bass 
V:4 bass 
V:1
 [CF]2 | [CF]2 [CG]2 [B,B]2 [CA]2 | [DG]2 [CG]2 [A,F]2 [CG]2 | [FA]2 [F=B]2 [Ec]2 [Ee]2 | %4
 [Ad]2 [Gd]2 [Ec]2 [F_e]2 | [Fd]2 [Ec]2 [FA]2 [DB]2 | [CA]2 [DF]2 !fermata![CA]2 [CG]2 | %7
 [DF]2 [FG]2 [FA]2 [EG]2 | F6 [CG]2 | [FA]2 [EB]2 d3 z c | c4 z2 x6 | [Fc]2 [FB]2 [EA]2 [EG]2 | %12
 F2 [FG]2 [FA]2 [EA]2 | [DG]2 [CF]2 [CF]2 [CE]2 | [CF]6 |] %15
V:2
 x2 | x8 | x8 | x8 | x8 | x8 | x8 | x8 | F6 x2 | x4 D2 E2 x | F6 c4 F2 | x8 | F2 x6 | x8 | x6 |] %15
V:3
 [F,A,]2 | [F,A,]2 [E,G,]2 [D,F,]2 [A,,F,]2 | [B,,F,]2 [C,E,]2 F,2 [E,C]2 | %3
 [F,C]2 [D,D]2 [A,C]2 [G,C]2 | [F,C]2 [G,=B,]2 [C,C]2 [A,,C]2 | [B,,B,]2 [C,G,]2 [D,F,]2 [G,,G,]2 | %6
 [A,,E,]2 [D,F,]2 !fermata![A,,E,]2 [A,,A,]2 | [D,A,]2 [B,,D]2 [C,C]2 [C,B,]2 | [F,A,]6 [E,G,]2 | %9
 [F,C]2 [G,C]2 B,2 [G,B,]2 x | [A,C]6 [A,,F]2 x4 | [B,,E]2 [B,,D]2 [C,C]2 [C,B,]2 | %12
 [D,A,]2 [D,B,]2 [A,,C]2 [A,,C]2 | [B,,B,]2 [F,,A,]2 [C,G,]2 [C,G,]2 | [F,,A,]6 |] %15
V:4
 x2 | x8 | x4 F,2 x2 | x8 | x8 | x8 | x8 | x8 | x8 | x4 B,2 x3 | x12 | x8 | x8 | x8 | x6 |] %15

